X: 15
T: I Was Lost in the Timber
N: Derived from pawnee15.krn
O: Oklahoma, U.S.A.
N: from Pawnee Music by Frances Densmore, 1926
Z: transcribed to **kern format by David Huron, August 2000
C: Skidi and Chaui Bands, 1919
L: 1/4
M: 2/4
Q: 1/4=88
K: C clef=bass
%%linebreak <none>
EE/ E/ | 
(EC) | 
EC/ C/ | 
C3/E// E//[M:3/4] | 
(E/< C/- C/>) E/ E// C3//[M:2/4] | 
(C/ A,/)A, | 
CA, | 
A,2 | 
B,A, | 
A,2 | 
B,A, | 
A,3/A,/ | 
E2[M:3/4] | 
EC/> E/ (E// C3//)[M:2/4] | 
(C/ A,/)A, | 
CA, | 
A,2 | 
B,A, | 
A,2 | 
B,A, | 
A,2 |]  



